X: 1
T: John Roy Stuart
O: Trad.
R: strathspey
Z: 2014 John Chambers <jc:trillian.mit.edu>
S: Image from George Meikle, via Sylvia Miskoe
N: Part of a set for The Gentleman, in a dance program from 2012
M: 4/4
L: 1/16
K: F
f2 |\
"F"cA3 A3G "C7"F3G A3B | "F"cF3 A3F c3F Af3 |\
"F"cA3 A3G "Dm"F3G A3F | "Gm"Dd3 "A7"d3^c "Dm"d4 "Bb"d2 :|
f2 |\
"F"c3d f3g a3f ga3 | "F"f3c dcBa fc3 c3f |\
"F"c3d f3g a3f g3a | "F"ca3 "A7"g3f "Dm"d4 "Bb"d2 |]
f2 |\
"F"c3d f3g a3f ga3 | "F"f3c dcBA f2c2 c2fg |\
"F"a3f "C"g3e "F"f3c "Bb"df3 | "Dm"Ad3 "A7"d3^c "Dm"d4 d2 |]
